X: 8677
T: Crossing The Minch
R: hornpipe
M: 4/4
K: Dmajor
f ~A5/2 f2ef|g~B5/2 g2ag|f ~A5/2 f2ef|gB ed dc de|
f ~A5/2 f2ef|g~B5/2 g4|(3fg(a a)f ge cd|e2 d2 dc de|

